blockchains/ethereum/assets/0x8Fc8f8269ebca376D046Ce292dC7eaC40c8D358A/logo.svg

<svg fill="none" height="250" viewBox="0 0 250 250" width="250" xmlns="http://www.w3.org/2000/svg" xmlns:xlink="http://www.w3.org/1999/xlink"><clipPath id="a"><path d="m0 0h250v250h-250z"/></clipPath><g clip-path="url(#a)"><path clip-rule="evenodd" d="m125 0c69.097 0 125 55.9028 125 125 0 68.403-54.861 123.958-122.917 125h-2.083v-105.208l-15.972 15.972-2.084 39.583 16.667 49.653c-9.722 0-19.097-1.389-28.4721-3.819l-2.4306-.695-7.9861-23.958-22.5694 11.458c-8.3334-4.861-15.9722-10.417-22.9167-17.014l-1.7361-1.736 42.0139-21.18 1.3889-23.959-23.9584 1.389-21.1805 42.014c-6.5972-6.944-12.5-14.583-17.3611-22.569l-1.3889-2.084 11.4583-22.569-23.95831-7.986c-2.43056-9.375-3.819446-18.75-4.166668-28.125v-2.431l49.999978 16.667 39.5834-2.084 15.9724-15.972-15.9724-15.972-39.5834-2.083-50.3472 16.319c0-9.722 1.38889-19.444 3.47222-28.4721l.69445-2.4306 23.95833-7.9861-11.4583-22.5694c4.8611-8.3334 10.4166-15.9722 17.0139-22.9167l1.7361-1.7361 21.1805 42.0139 23.9584 1.3889-1.3889-23.9584-42.0139-21.1805c6.9444-6.5972 14.5833-12.5 22.5694-17.3611l2.0834-1.3889 22.5694 11.4583 7.9861-23.95831c9.3749-2.43056 18.7499-3.819446 28.1249-4.166668h2.431l-16.667 49.652778 2.083 39.5833 15.973 15.9727c.694-.348.694-105.556.694-105.556zm27.778 31.9444v186.4586c39.93-12.153 69.444-49.306 69.444-93.403 0-43.4028-28.819-80.2083-68.055-92.7083z" fill="#ff00af" fill-rule="evenodd"/></g></svg>

<svg width="250" height="250" viewBox="0 0 250 250" fill="none" xmlns="http://www.w3.org/2000/svg">
<g clip-path="url(#clip0_50_11417)">
<path fill-rule="evenodd" clip-rule="evenodd" d="M125 0C194.097 0 250 55.9028 250 125C250 193.403 195.139 248.958 127.083 250H125V144.792L109.028 160.764L106.944 200.347L123.611 250C113.889 250 104.514 248.611 95.1389 246.181L92.7083 245.486L84.7222 221.528L62.1528 232.986C53.8194 228.125 46.1806 222.569 39.2361 215.972L37.5 214.236L79.5139 193.056L80.9028 169.097L56.9444 170.486L35.7639 212.5C29.1667 205.556 23.2639 197.917 18.4028 189.931L17.0139 187.847L28.4722 165.278L4.51389 157.292C2.08333 147.917 0.694444 138.542 0.347222 129.167V126.736L50.3472 143.403L89.9306 141.319L105.903 125.347L89.9306 109.375L50.3472 107.292L0 123.611C0 113.889 1.38889 104.167 3.47222 95.1389L4.16667 92.7083L28.125 84.7222L16.6667 62.1528C21.5278 53.8194 27.0833 46.1806 33.6806 39.2361L35.4167 37.5L56.5972 79.5139L80.5556 80.9028L79.1667 56.9444L37.1528 35.7639C44.0972 29.1667 51.7361 23.2639 59.7222 18.4028L61.8056 17.0139L84.375 28.4722L92.3611 4.51389C101.736 2.08333 111.111 0.694444 120.486 0.347222H122.917L106.25 50L108.333 89.5833L124.306 105.556C125 105.208 125 0 125 0ZM152.778 31.9444V218.403C192.708 206.25 222.222 169.097 222.222 125C222.222 81.5972 193.403 44.7917 154.167 32.2917L152.778 31.9444Z" fill="#FF00AF"/>
</g>
<defs>
<clipPath id="clip0_50_11417">
<rect width="250" height="250" fill="white"/>
</clipPath>
</defs>
</svg>
